OasisApp/media/restartArrow.svg

<svg fill="none" height="75" viewBox="0 0 76 75" width="76" xmlns="http://www.w3.org/2000/svg"><path d="m31.9437 15.0375-1.0446-1.0856c-.2898.2759-.4552.657-.4591 1.0578s.1541.7879.4385 1.0744zm-16.2476 19.9547c.1072-.8185-.4735-1.5744-1.297-1.6884-.8236-.114-1.5781.4571-1.6853 1.2755zm27.084-6.9191c.5863.5905 1.5384.6006 2.1267.0226.5882-.578.5899-1.5253.0037-2.1159zm2.6351-23.77911c.5974-.56867.6141-1.5157.0372-2.11524-.577-.59955-1.5289-.62457-2.1264-.05589zm-13.0849 12.19281c4.6675-1.194 9.6004-.8886 14.0718.8674l1.0824-2.7822c-5.068-1.9902-10.6506-2.3337-15.9275-.9838zm14.0718.8674c4.471 1.7558 8.2429 4.8682 10.7652 8.8746l2.5447-1.5722c-2.8713-4.5608-7.159-8.0941-12.2275-10.0846zm10.7652 8.8746c2.5221 4.0061 3.6644 8.6985 3.2588 13.3884l2.9965.2831c.4617-5.3387-.839-10.6826-3.7106-15.2437zm3.2588 13.3884c-.4056 4.6903-2.3385 9.1349-5.5205 12.6773l2.2504 2.0052c3.6061-4.0146 5.8049-9.0612 6.2666-14.3994zm-5.5205 12.6773c-3.1823 3.5428-7.4446 5.9944-12.1602 6.9904l.6497 2.9275c5.3314-1.1261 10.1551-3.8984 13.7609-7.9127zm-12.1602 6.9904c-4.7155.996-9.6299.4828-14.0193-1.4599l-1.2017 2.7324c4.9765 2.2025 10.5394 2.7811 15.8707 1.655zm-14.0193-1.4599c-4.3888-1.9424-8.0198-5.2105-10.3633-9.3192l-2.6124 1.4593c2.6683 4.6782 6.7971 8.3896 11.774 10.5923zm-10.3633-9.3192c-2.3433-4.1084-3.2782-8.8446-2.6667-13.5136l-2.9823-.4129c-.6961 5.3137.3682 10.7074 3.0366 15.3858zm12.5157-32.4217 11.9016 11.989 2.1304-2.0933-11.9016-11.9889zm2.1098.039 12.4269-11.82911-2.0892-2.17113-12.4269 11.82904z" fill="#111e47"/></svg>

<svg width="76" height="75" viewBox="0 0 76 75" fill="none" xmlns="http://www.w3.org/2000/svg">
<path d="M31.9437 15.0375L30.8991 13.9519C30.6093 14.2278 30.4439 14.6089 30.44 15.0097C30.4361 15.4105 30.5941 15.7976 30.8785 16.0841L31.9437 15.0375ZM15.6961 34.9922C15.8033 34.1737 15.2226 33.4178 14.3991 33.3038C13.5755 33.1898 12.821 33.7609 12.7138 34.5793L15.6961 34.9922ZM42.7801 28.0731C43.3664 28.6636 44.3185 28.6737 44.9068 28.0957C45.495 27.5177 45.4967 26.5704 44.9105 25.9798L42.7801 28.0731ZM45.4152 4.29399C46.0126 3.72532 46.0293 2.77829 45.4524 2.17875C44.8754 1.5792 43.9235 1.55418 43.326 2.12286L45.4152 4.29399ZM32.3303 16.4868C36.9978 15.2928 41.9307 15.5982 46.4021 17.3542L47.4845 14.572C42.4165 12.5818 36.8339 12.2383 31.557 13.5882L32.3303 16.4868ZM46.4021 17.3542C50.8731 19.11 54.645 22.2224 57.1673 26.2288L59.712 24.6566C56.8407 20.0958 52.553 16.5625 47.4845 14.572L46.4021 17.3542ZM57.1673 26.2288C59.6894 30.2349 60.8317 34.9273 60.4261 39.6172L63.4226 39.9003C63.8843 34.5616 62.5836 29.2177 59.712 24.6566L57.1673 26.2288ZM60.4261 39.6172C60.0205 44.3075 58.0876 48.7521 54.9056 52.2945L57.156 54.2997C60.7621 50.2851 62.9609 45.2385 63.4226 39.9003L60.4261 39.6172ZM54.9056 52.2945C51.7233 55.8373 47.461 58.2889 42.7454 59.2849L43.3951 62.2124C48.7265 61.0863 53.5502 58.314 57.156 54.2997L54.9056 52.2945ZM42.7454 59.2849C38.0299 60.2809 33.1155 59.7677 28.7261 57.825L27.5244 60.5574C32.5009 62.7599 38.0638 63.3385 43.3951 62.2124L42.7454 59.2849ZM28.7261 57.825C24.3373 55.8826 20.7063 52.6145 18.3628 48.5058L15.7504 49.9651C18.4187 54.6433 22.5475 58.3547 27.5244 60.5574L28.7261 57.825ZM18.3628 48.5058C16.0195 44.3974 15.0846 39.6612 15.6961 34.9922L12.7138 34.5793C12.0177 39.893 13.082 45.2867 15.7504 49.9651L18.3628 48.5058ZM30.8785 16.0841L42.7801 28.0731L44.9105 25.9798L33.0089 13.9909L30.8785 16.0841ZM32.9883 16.1231L45.4152 4.29399L43.326 2.12286L30.8991 13.9519L32.9883 16.1231Z" fill="#111E47"/>
</svg>
